svgs/camera.svg

<svg id="vector" xmlns="http://www.w3.org/2000/svg" width="192" height="192" viewBox="0 0 192 192"><path fill="#000000" d="M60,50V56C61.889,56 63.667,55.111 64.8,53.6L60,50ZM72,34V28C70.112,28 68.333,28.889 67.2,30.4L72,34ZM132,50L127.2,53.6C128.333,55.111 130.111,56 132,56V50ZM120,34L124.8,30.4C123.667,28.889 121.889,28 120,28V34ZM164,66V142H176V66H164ZM154,152H38V164H154V152ZM28,142V66H16V142H28ZM38,56H60V44H38V56ZM64.8,53.6L76.8,37.6L67.2,30.4L55.2,46.4L64.8,53.6ZM132,56H154V44H132V56ZM136.8,46.4L124.8,30.4L115.2,37.6L127.2,53.6L136.8,46.4ZM120,28H72V40H120V28ZM38,152C32.477,152 28,147.523 28,142H16C16,154.15 25.85,164 38,164V152ZM164,142C164,147.523 159.523,152 154,152V164C166.15,164 176,154.15 176,142H164ZM176,66C176,53.85 166.15,44 154,44V56C159.523,56 164,60.477 164,66H176ZM28,66C28,60.477 32.477,56 38,56V44C25.85,44 16,53.85 16,66H28Z" id="path_0"/><path fill="#00000000" d="M96,102m-28,0a28,28 0,1 1,56 0a28,28 0,1 1,-56 0" stroke-width="12" stroke="#000000" id="path_1"/></svg>

<svg width="192" height="192" viewBox="0 0 192 192" fill="none" xmlns="http://www.w3.org/2000/svg"><path d="M60 50v6a6 6 0 0 0 4.8-2.4L60 50Zm12-16v-6a6 6 0 0 0-4.8 2.4L72 34Zm60 16-4.8 3.6A6 6 0 0 0 132 56v-6Zm-12-16 4.8-3.6A6 6 0 0 0 120 28v6Zm44 32v76h12V66h-12Zm-10 86H38v12h116v-12ZM28 142V66H16v76h12Zm10-86h22V44H38v12Zm26.8-2.4 12-16-9.6-7.2-12 16 9.6 7.2ZM132 56h22V44h-22v12Zm4.8-9.6-12-16-9.6 7.2 12 16 9.6-7.2ZM120 28H72v12h48V28ZM38 152c-5.523 0-10-4.477-10-10H16c0 12.15 9.85 22 22 22v-12Zm126-10c0 5.523-4.477 10-10 10v12c12.15 0 22-9.85 22-22h-12Zm12-76c0-12.15-9.85-22-22-22v12c5.523 0 10 4.477 10 10h12ZM28 66c0-5.523 4.477-10 10-10V44c-12.15 0-22 9.85-22 22h12Z" fill="#000"/><circle cx="96" cy="102" r="28" stroke="#000" stroke-width="12"/></svg>
